test_waco/assets/benefits/capacitations.svg

<svg fill="none" height="142" viewBox="0 0 153 142" width="153" xmlns="http://www.w3.org/2000/svg" xmlns:xlink="http://www.w3.org/1999/xlink"><filter id="a" color-interpolation-filters="sRGB" filterUnits="userSpaceOnUse" height="151.771" width="152.185" x=".510914" y="-10.1717"><feFlood flood-opacity="0" result="BackgroundImageFix"/><feColorMatrix in="SourceAlpha" result="hardAlpha" type="matrix" values="0 0 0 0 0 0 0 0 0 0 0 0 0 0 0 0 0 0 127 0"/><feMorphology in="SourceAlpha" operator="dilate" radius="2.9062" result="effect1_dropShadow"/><feOffset/><feGaussianBlur stdDeviation="3.63275"/><feColorMatrix type="matrix" values="0 0 0 0 0 0 0 0 0 1 0 0 0 0 0.407843 0 0 0 1 0"/><feBlend in2="BackgroundImageFix" mode="normal" result="effect1_dropShadow"/><feBlend in="SourceGraphic" in2="effect1_dropShadow" mode="normal" result="shape"/></filter><linearGradient id="b" gradientUnits="userSpaceOnUse" x1="10.6828" x2="142.523" y1="65.7179" y2="65.7179"><stop offset="0" stop-color="#8fff70"/><stop offset="1" stop-color="#8fffff"/></linearGradient><linearGradient id="c"><stop offset="0" stop-color="#8fff73"/><stop offset="1" stop-color="#8ffff9"/></linearGradient><linearGradient id="d" gradientUnits="userSpaceOnUse" x1="43.4653" x2="108.374" xlink:href="#c" y1="66.0693" y2="66.0693"/><linearGradient id="e" gradientUnits="userSpaceOnUse" x1="93.7175" x2="95.8113" xlink:href="#c" y1="42.4871" y2="42.4871"/><linearGradient id="f" gradientUnits="userSpaceOnUse" x1="97.905" x2="99.9988" xlink:href="#c" y1="42.4871" y2="42.4871"/><linearGradient id="g" gradientUnits="userSpaceOnUse" x1="102.093" x2="104.186" xlink:href="#c" y1="42.4871" y2="42.4871"/><linearGradient id="h" gradientUnits="userSpaceOnUse" x1="89.53" x2="108.374" xlink:href="#c" y1="44.567" y2="44.567"/><clipPath id="i"><path d="m10.6826 0h131.841v131.427h-131.841z"/></clipPath><g filter="url(#a)"><g clip-path="url(#i)"><path d="m78.3256 131.427c-.7341 0-1.4681-.018-2.2209-.056-8.5071-.471-16.4308-3.576-21.1737-8.319l-37.228-37.2468c-4.7052-4.7053-7.2649-12.3843-7.0014-21.0419.2635-8.3942 3.1996-16.2049 7.886-20.8726l15.0757-15.0756c.4329-.4329 1.1292-.4329 1.5621 0s.4329 1.1293 0 1.5621l-15.0756 15.0757c-4.2912 4.2912-6.9826 11.5373-7.2273 19.3668-.2447 7.9425 2.1268 15.1886 6.3427 19.4045l37.2468 37.2468c4.3665 4.367 11.7443 7.246 19.7244 7.679 8.0742.433 15.358-1.769 19.4986-5.91l15.527-15.527c.433-.433 1.13-.433 1.562 0 .433.433.433 1.129 0 1.562l-15.5269 15.527c-4.2347 4.273-11.0667 6.625-18.9715 6.625zm48.3514-36.87c-.283 0-.565-.113-.791-.32-.433-.4329-.433-1.1293 0-1.5621l7.548-7.5473c4.178-4.1783 6.756-11.0479 6.869-18.3505.132-7.5096-2.258-14.2663-6.531-18.5575l-39.0157-39.01601c-4.2724-4.27237-11.3867-6.8885-19.028-6.9826-7.6226-.09411-14.6428 2.29616-18.7834 6.43679l-9.7493 9.74932c-.4329.4329-1.1293.4329-1.5622 0-.4328-.4329-.4328-1.1293 0-1.5622l9.7493-9.74926c4.5359-4.55469 12.1584-7.208459 20.3644-7.09553261 8.3377.11292661 15.8285 2.89844261 20.5714 7.62251261l39.0155 39.01598c4.706 4.7053 7.322 12.0455 7.19 20.1573-.132 7.8672-2.955 15.3015-7.528 19.8939l-7.548 7.5472c-.207.207-.489.32-.771.32z" fill="url(#b)"/></g><path d="m106.461 83.3157c.22-.2251.429-.4617.615-.7171 1.109-1.5399 1.528-3.4044 1.168-5.316l-1.152-4.5539c-.915-3.6201-3.564-6.4257-6.926-7.6297 1.8-1.3379 2.973-3.4724 2.973-5.8802 0-4.0399-3.2878-7.3282-7.3277-7.3282s-7.3281 3.2883-7.3281 7.3282c0 2.0497.849 3.9037 2.2099 5.2343l-7.9677.0011c-2.0205 0-3.6641 1.6425-3.6641 3.663 0 .5643.1392 1.0929.3685 1.5703h-2.4622v-12.752l2.8956-.5789c4.3875-.8773 7.5731-4.7622 7.5731-9.2387v-10.407c0-2.0204-1.6436-3.664-3.6641-3.664-2.0204 0-3.664 1.6436-3.664 3.664v8.8985c0 1.7315-1.4091 3.1406-3.1406 3.1406h-3.2569c1.362-1.3316 2.21-3.1846 2.21-5.2344 0-4.0399-3.2883-7.3281-7.3281-7.3281-4.0399 0-7.3282 3.2882-7.3282 7.3281 0 2.2215.9977 4.2116 2.5638 5.5568-2.1063.5025-4.0336 1.5965-5.5662 3.1689-.7046-.2261-1.4531-.3507-2.2319-.3507-4.0399 0-7.3282 3.2883-7.3282 7.3282 0 2.4078 1.1736 4.5423 2.9721 5.8792-3.3615 1.205-6.0101 4.0095-6.9261 7.6296l-1.1641 4.6157c-.3466 1.8498.0732 3.7154 1.1819 5.2543.1853.2564.3936.493.6145.7171-1.0689.0942-1.9126.984-1.9126 2.0759v2.0938c0 1.1547.939 2.0937 2.0937 2.0937h4.1875v6.2813h-2.0937v2.0937h10.4687v-2.0937h-2.0937v-6.2813h.8553l1.3305 5.0648c.4115 1.9179 2.1336 3.3102 4.0944 3.3102.2899 0 .5831-.0303.8751-.0921 1.0961-.2355 2.0341-.8815 2.6424-1.8216.6071-.938.8123-2.0592.5653-3.2003l-2.4194-9.203c-.5213-2.4298-2.1094-4.4283-4.1958-5.5736h11.9553v19.8906h8.375v-19.8906h11.9511c-2.0843 1.1411-3.6672 3.1281-4.1812 5.5275l-2.4413 9.2942c-.2366 1.096-.0304 2.2162.5768 3.1552.6082.9401 1.5473 1.5871 2.6475 1.8226.2869.0608.58.0911.87.0911 1.9608 0 3.6829-1.3923 4.0818-3.2641l1.3431-5.1109h1.9022v6.2813h-2.0938v2.0937h10.4686v-2.0937h-2.094v-6.2813h3.141c1.155 0 2.094-.939 2.094-2.0937v-2.0938c0-1.0919-.844-1.9817-1.913-2.0749zm-15.8841-24.0969c0-2.8863 2.3482-5.2344 5.2344-5.2344s5.2347 2.3481 5.2347 5.2344c0 2.8862-2.3485 5.2343-5.2347 5.2343s-5.2344-2.3481-5.2344-5.2343zm-7.8432 12.5624h1.5766 8.6388l1.316 4.1876h-36.6888l1.3159-4.1876h8.6556 1.5598zm-13.1257-11.9176-1.0154 1.0155-1.0155-1.0155.6438-9.0198h.7443zm-6.2498-16.348c0-2.8862 2.3481-5.2344 5.2344-5.2344 2.8862 0 5.2343 2.3482 5.2343 5.2344 0 2.8863-2.3481 5.2344-5.2343 5.2344-2.8863 0-5.2344-2.3481-5.2344-5.2344zm2.7627 7.3491-.7004 9.8029 3.1721 3.1721 3.172-3.1721-.7014-9.8238h5.9044c2.8862 0 5.2343-2.3482 5.2343-5.2344v-8.8985c0-.8657.7046-1.5703 1.5703-1.5703.8658 0 1.5704.7046 1.5704 1.5703v10.407c0 3.4809-2.477 6.5032-5.8908 7.1858l-4.578.917v14.4668h-2.4622c.2292-.4774.3685-1.006.3685-1.5703 0-2.0205-1.6436-3.663-3.6641-3.663l-7.9678-.0011c1.361-1.3306 2.21-3.1846 2.21-5.2343 0-2.4717-1.2343-4.6576-3.1145-5.985 1.6216-1.4426 3.6913-2.2812 5.8772-2.3691zm-15.3252 8.3541c0-2.8863 2.3481-5.2344 5.2344-5.2344 2.8862 0 5.2343 2.3481 5.2343 5.2344 0 2.8862-2.3481 5.2343-5.2343 5.2343-2.8863 0-5.2344-2.3481-5.2344-5.2343zm3.1406 36.6406h-2.0937v-6.2813h2.0937zm-8.375-8.375v-2.0938h4.9193l5.317.0482.5381 2.0456zm16.3784-3.3626 2.4193 9.2041c.1172.5465.0157 1.1076-.2879 1.5766-.3036.4701-.7736.7946-1.3191.9108-1.1274.2366-2.2476-.5004-2.4989-1.6561l-2.4193-9.2063c-.2083-.9579-1.0688-1.654-2.0477-1.654h-3.9394-1.3661c-1.6457 0-3.148-.7192-4.0158-1.9242-.7705-1.0688-1.0637-2.3628-.8375-3.5792l1.1515-4.5529c.9956-3.9404 4.5309-6.6937 8.597-6.6937l13.7402.001c.8658 0 1.5703.7046 1.5703 1.5693 0 .8658-.7087 1.5703-1.5787 1.5703h-1.5598-10.1924l-2.9585 9.4177 1.4185.0073c2.9271.0147 5.4982 2.1021 6.1243 5.0093zm16.0747 11.7376h-4.1875v-17.7969h4.1875zm13.5633-1.6562c-.2376 1.1034-1.3944 1.8394-2.4821 1.6112-.5496-.1173-1.0207-.4418-1.3243-.9119-.3036-.469-.4062-1.029-.2994-1.5315l2.4413-9.2953c.6145-2.8611 3.1857-4.9496 6.1127-4.9632l1.4185-.0073-2.9584-9.4177h-10.1767-1.5766c-.8689 0-1.5776-.7045-1.5776-1.5703 0-.8647.7045-1.5693 1.5703-1.5693l12.039-.001h1.7012c4.0664 0 7.6014 2.7533 8.5974 6.6947l1.137 4.4901c.24 1.2793-.053 2.5722-.823 3.6421-.868 1.2039-2.371 1.9231-4.016 1.9231h-2.4091-2.8967c-.9799 0-1.8404.6961-2.0361 1.6101zm9.4683 1.6562h-2.0941v-6.2813h2.0941zm5.234-8.375h-10.7744l.5496-2.0938h2.8967 2.4091 4.919z" fill="url(#d)"/><path d="m93.7175 41.4219h2.0938v2.0937h-2.0938z" fill="url(#e)"/><path d="m97.905 41.4219h2.0938v2.0937h-2.0938z" fill="url(#f)"/><path d="m102.093 41.4219h2.093v2.0937h-2.093z" fill="url(#g)"/><path d="m105.233 37.2344h-12.5623c-1.7316 0-3.1407 1.4091-3.1407 3.1406v4.1875c0 1.7315 1.4091 3.1406 3.1407 3.1406h3.1406v3.9436l6.5717-3.9436h2.85c1.732 0 3.141-1.4091 3.141-3.1406v-4.1875c0-1.7315-1.409-3.1406-3.141-3.1406zm1.047 7.3281c0 .5779-.469 1.0469-1.047 1.0469h-3.43l-3.898 2.3376v-2.3376h-5.2343c-.5779 0-1.0469-.469-1.0469-1.0469v-4.1875c0-.5779.469-1.0469 1.0469-1.0469h12.5623c.578 0 1.047.469 1.047 1.0469z" fill="url(#h)"/></g></svg>

<svg width="153" height="142" viewBox="0 0 153 142" fill="none" xmlns="http://www.w3.org/2000/svg">
<g filter="url(#filter0_d)">
<g clip-path="url(#clip0)">
<path d="M78.3256 131.427C77.5915 131.427 76.8575 131.409 76.1047 131.371C67.5976 130.9 59.6739 127.795 54.931 123.052L17.703 85.8052C12.9978 81.0999 10.4381 73.4209 10.7016 64.7633C10.9651 56.3691 13.9012 48.5584 18.5876 43.8907L33.6633 28.8151C34.0962 28.3822 34.7925 28.3822 35.2254 28.8151C35.6583 29.248 35.6583 29.9444 35.2254 30.3772L20.1498 45.4529C15.8586 49.7441 13.1672 56.9902 12.9225 64.8197C12.6778 72.7622 15.0493 80.0083 19.2652 84.2242L56.512 121.471C60.8785 125.838 68.2563 128.717 76.2364 129.15C84.3106 129.583 91.5944 127.381 95.735 123.24L111.262 107.713C111.695 107.28 112.392 107.28 112.824 107.713C113.257 108.146 113.257 108.842 112.824 109.275L97.2971 124.802C93.0624 129.075 86.2304 131.427 78.3256 131.427ZM126.677 94.557C126.394 94.557 126.112 94.444 125.886 94.237C125.453 93.8041 125.453 93.1077 125.886 92.6749L133.434 85.1276C137.612 80.9493 140.19 74.0797 140.303 66.7771C140.435 59.2675 138.045 52.5108 133.772 48.2196L94.7563 9.20359C90.4839 4.93122 83.3696 2.31509 75.7283 2.22099C68.1057 2.12688 61.0855 4.51715 56.9449 8.65778L47.1956 18.4071C46.7627 18.84 46.0663 18.84 45.6334 18.4071C45.2006 17.9742 45.2006 17.2778 45.6334 16.8449L55.3827 7.09564C59.9186 2.54095 67.5411 -0.112819 75.7471 0.000107385C84.0848 0.113034 91.5756 2.89855 96.3185 7.62262L135.334 46.6386C140.04 51.3439 142.656 58.6841 142.524 66.7959C142.392 74.6631 139.569 82.0974 134.996 86.6898L127.448 94.237C127.241 94.444 126.959 94.557 126.677 94.557Z" fill="url(#paint0_linear)"/>
</g>
<path d="M106.461 83.3157C106.681 83.0906 106.89 82.854 107.076 82.5986C108.185 81.0587 108.604 79.1942 108.244 77.2826L107.092 72.7287C106.177 69.1086 103.528 66.303 100.166 65.099C101.966 63.7611 103.139 61.6266 103.139 59.2188C103.139 55.1789 99.8512 51.8906 95.8113 51.8906C91.7714 51.8906 88.4832 55.1789 88.4832 59.2188C88.4832 61.2685 89.3322 63.1225 90.6931 64.4531L82.7254 64.4542C80.7049 64.4542 79.0613 66.0967 79.0613 68.1172C79.0613 68.6815 79.2005 69.2101 79.4298 69.6875H76.9676V56.9355L79.8632 56.3566C84.2507 55.4793 87.4363 51.5944 87.4363 47.1179V36.7109C87.4363 34.6905 85.7927 33.0469 83.7722 33.0469C81.7518 33.0469 80.1082 34.6905 80.1082 36.7109V45.6094C80.1082 47.3409 78.6991 48.75 76.9676 48.75H73.7107C75.0727 47.4184 75.9207 45.5654 75.9207 43.5156C75.9207 39.4757 72.6324 36.1875 68.5926 36.1875C64.5527 36.1875 61.2644 39.4757 61.2644 43.5156C61.2644 45.7371 62.2621 47.7272 63.8282 49.0724C61.7219 49.5749 59.7946 50.6689 58.262 52.2413C57.5574 52.0152 56.8089 51.8906 56.0301 51.8906C51.9902 51.8906 48.7019 55.1789 48.7019 59.2188C48.7019 61.6266 49.8755 63.7611 51.674 65.098C48.3125 66.303 45.6639 69.1075 44.7479 72.7276L43.5838 77.3433C43.2372 79.1931 43.657 81.0587 44.7657 82.5976C44.951 82.854 45.1593 83.0906 45.3802 83.3147C44.3113 83.4089 43.4676 84.2987 43.4676 85.3906V87.4844C43.4676 88.6391 44.4066 89.5781 45.5613 89.5781H49.7488V95.8594H47.6551V97.9531H58.1238V95.8594H56.0301V89.5781H56.8854L58.2159 94.6429C58.6274 96.5608 60.3495 97.9531 62.3103 97.9531C62.6002 97.9531 62.8934 97.9228 63.1854 97.861C64.2815 97.6255 65.2195 96.9795 65.8278 96.0394C66.4349 95.1014 66.6401 93.9802 66.3931 92.8391L63.9737 83.6361C63.4524 81.2063 61.8643 79.2078 59.7779 78.0625H71.7332V97.9531H80.1082V78.0625H92.0593C89.975 79.2036 88.3921 81.1906 87.8781 83.59L85.4368 92.8842C85.2002 93.9802 85.4064 95.1004 86.0136 96.0394C86.6218 96.9795 87.5609 97.6265 88.6611 97.862C88.948 97.9228 89.2411 97.9531 89.5311 97.9531C91.4919 97.9531 93.214 96.5608 93.6129 94.689L94.956 89.5781H96.8582V95.8594H94.7644V97.9531H105.233V95.8594H103.139V89.5781H106.28C107.435 89.5781 108.374 88.6391 108.374 87.4844V85.3906C108.374 84.2987 107.53 83.4089 106.461 83.3157ZM90.5769 59.2188C90.5769 56.3325 92.9251 53.9844 95.8113 53.9844C98.6975 53.9844 101.046 56.3325 101.046 59.2188C101.046 62.105 98.6975 64.4531 95.8113 64.4531C92.9251 64.4531 90.5769 62.105 90.5769 59.2188ZM82.7337 71.7812H84.3103H92.9491L94.2651 75.9688H57.5763L58.8922 71.7812H67.5478H69.1076H82.7337ZM69.608 59.8636L68.5926 60.8791L67.5771 59.8636L68.2209 50.8438H68.9652L69.608 59.8636ZM63.3582 43.5156C63.3582 40.6294 65.7063 38.2812 68.5926 38.2812C71.4788 38.2812 73.8269 40.6294 73.8269 43.5156C73.8269 46.4019 71.4788 48.75 68.5926 48.75C65.7063 48.75 63.3582 46.4019 63.3582 43.5156ZM66.1209 50.8647L65.4205 60.6676L68.5926 63.8397L71.7646 60.6676L71.0632 50.8438H76.9676C79.8538 50.8438 82.2019 48.4956 82.2019 45.6094V36.7109C82.2019 35.8452 82.9065 35.1406 83.7722 35.1406C84.638 35.1406 85.3426 35.8452 85.3426 36.7109V47.1179C85.3426 50.5988 82.8656 53.6211 79.4518 54.3037L74.8738 55.2207V69.6875H72.4116C72.6408 69.2101 72.7801 68.6815 72.7801 68.1172C72.7801 66.0967 71.1365 64.4542 69.116 64.4542L61.1482 64.4531C62.5092 63.1225 63.3582 61.2685 63.3582 59.2188C63.3582 56.7471 62.1239 54.5612 60.2437 53.2338C61.8653 51.7912 63.935 50.9526 66.1209 50.8647ZM50.7957 59.2188C50.7957 56.3325 53.1438 53.9844 56.0301 53.9844C58.9163 53.9844 61.2644 56.3325 61.2644 59.2188C61.2644 62.105 58.9163 64.4531 56.0301 64.4531C53.1438 64.4531 50.7957 62.105 50.7957 59.2188ZM53.9363 95.8594H51.8426V89.5781H53.9363V95.8594ZM45.5613 87.4844V85.3906H50.4806L55.7976 85.4388L56.3357 87.4844H45.5613ZM61.9397 84.1218L64.359 93.3259C64.4762 93.8724 64.3747 94.4335 64.0711 94.9025C63.7675 95.3726 63.2975 95.6971 62.752 95.8133C61.6246 96.0499 60.5044 95.3129 60.2531 94.1572L57.8338 84.9509C57.6255 83.993 56.765 83.2969 55.7861 83.2969H51.8467H50.4806C48.8349 83.2969 47.3326 82.5777 46.4648 81.3727C45.6943 80.3039 45.4011 79.0099 45.6273 77.7935L46.7788 73.2406C47.7744 69.3002 51.3097 66.5469 55.3758 66.5469L69.116 66.5479C69.9818 66.5479 70.6863 67.2525 70.6863 68.1172C70.6863 68.983 69.9776 69.6875 69.1076 69.6875H67.5478H57.3554L54.3969 79.1052L55.8154 79.1125C58.7425 79.1272 61.3136 81.2146 61.9397 84.1218ZM78.0144 95.8594H73.8269V78.0625H78.0144V95.8594ZM91.5777 94.2032C91.3401 95.3066 90.1833 96.0426 89.0956 95.8144C88.546 95.6971 88.0749 95.3726 87.7713 94.9025C87.4677 94.4335 87.3651 93.8735 87.4719 93.371L89.9132 84.0757C90.5277 81.2146 93.0989 79.1261 96.0259 79.1125L97.4444 79.1052L94.486 69.6875H84.3093H82.7327C81.8638 69.6875 81.1551 68.983 81.1551 68.1172C81.1551 67.2525 81.8596 66.5479 82.7254 66.5479L94.7644 66.5469H96.4656C100.532 66.5469 104.067 69.3002 105.063 73.2416L106.2 77.7317C106.44 79.011 106.147 80.3039 105.377 81.3738C104.509 82.5777 103.006 83.2969 101.361 83.2969H98.9519H96.0552C95.0753 83.2969 94.2148 83.993 94.0191 84.907L91.5777 94.2032ZM101.046 95.8594H98.9519V89.5781H101.046V95.8594ZM106.28 87.4844H95.5056L96.0552 85.3906H98.9519H101.361H106.28V87.4844Z" fill="url(#paint1_linear)"/>
<path d="M93.7175 41.4219H95.8113V43.5156H93.7175V41.4219Z" fill="url(#paint2_linear)"/>
<path d="M97.905 41.4219H99.9988V43.5156H97.905V41.4219Z" fill="url(#paint3_linear)"/>
<path d="M102.093 41.4219H104.186V43.5156H102.093V41.4219Z" fill="url(#paint4_linear)"/>
<path d="M105.233 37.2344H92.6707C90.9391 37.2344 89.53 38.6435 89.53 40.375V44.5625C89.53 46.294 90.9391 47.7031 92.6707 47.7031H95.8113V51.6467L102.383 47.7031H105.233C106.965 47.7031 108.374 46.294 108.374 44.5625V40.375C108.374 38.6435 106.965 37.2344 105.233 37.2344ZM106.28 44.5625C106.28 45.1404 105.811 45.6094 105.233 45.6094H101.803L97.905 47.947V45.6094H92.6707C92.0928 45.6094 91.6238 45.1404 91.6238 44.5625V40.375C91.6238 39.7971 92.0928 39.3281 92.6707 39.3281H105.233C105.811 39.3281 106.28 39.7971 106.28 40.375V44.5625Z" fill="url(#paint5_linear)"/>
</g>
<defs>
<filter id="filter0_d" x="0.510914" y="-10.1717" width="152.185" height="151.771" filterUnits="userSpaceOnUse" color-interpolation-filters="sRGB">
<feFlood flood-opacity="0" result="BackgroundImageFix"/>
<feColorMatrix in="SourceAlpha" type="matrix" values="0 0 0 0 0 0 0 0 0 0 0 0 0 0 0 0 0 0 127 0" result="hardAlpha"/>
<feMorphology radius="2.9062" operator="dilate" in="SourceAlpha" result="effect1_dropShadow"/>
<feOffset/>
<feGaussianBlur stdDeviation="3.63275"/>
<feColorMatrix type="matrix" values="0 0 0 0 0 0 0 0 0 1 0 0 0 0 0.407843 0 0 0 1 0"/>
<feBlend mode="normal" in2="BackgroundImageFix" result="effect1_dropShadow"/>
<feBlend mode="normal" in="SourceGraphic" in2="effect1_dropShadow" result="shape"/>
</filter>
<linearGradient id="paint0_linear" x1="10.6828" y1="65.7179" x2="142.523" y2="65.7179" gradientUnits="userSpaceOnUse">
<stop stop-color="#8FFF70"/>
<stop offset="1" stop-color="#8FFFFF"/>
</linearGradient>
<linearGradient id="paint1_linear" x1="43.4653" y1="66.0693" x2="108.374" y2="66.0693" gradientUnits="userSpaceOnUse">
<stop stop-color="#8FFF73"/>
<stop offset="1" stop-color="#8FFFF9"/>
</linearGradient>
<linearGradient id="paint2_linear" x1="93.7175" y1="42.4871" x2="95.8113" y2="42.4871" gradientUnits="userSpaceOnUse">
<stop stop-color="#8FFF73"/>
<stop offset="1" stop-color="#8FFFF9"/>
</linearGradient>
<linearGradient id="paint3_linear" x1="97.905" y1="42.4871" x2="99.9988" y2="42.4871" gradientUnits="userSpaceOnUse">
<stop stop-color="#8FFF73"/>
<stop offset="1" stop-color="#8FFFF9"/>
</linearGradient>
<linearGradient id="paint4_linear" x1="102.093" y1="42.4871" x2="104.186" y2="42.4871" gradientUnits="userSpaceOnUse">
<stop stop-color="#8FFF73"/>
<stop offset="1" stop-color="#8FFFF9"/>
</linearGradient>
<linearGradient id="paint5_linear" x1="89.53" y1="44.567" x2="108.374" y2="44.567" gradientUnits="userSpaceOnUse">
<stop stop-color="#8FFF73"/>
<stop offset="1" stop-color="#8FFFF9"/>
</linearGradient>
<clipPath id="clip0">
<rect width="131.841" height="131.427" fill="white" transform="translate(10.6826)"/>
</clipPath>
</defs>
</svg>
